X: 20
M:2/4
L:1/16
K:G
u(B>.A)|\
c2"4"e2 d>BG>B | {B}A>^GA>B A>cB>A |
=G2B2 D>DE>F | {A}G>FG>A B2A>G | c2"4"e2 d>BG>c |\
 B>DB>A G2:|
|:ud2|\
"4"(e>.e)(e>.c) "^SEGUE"d>dd>B | {d}c>Bc>"4"e d2B>G |\
{d}c>Bc>"4"e d>BG>B | "4"A>^G"4"A>B "0"A>cB>A |
=G2B2 D>DE>F | "4"{A}G>FG>A B2A>G | c2"4"e2 d>BG>c |\


